icons/line/chart-bar.svg

<svg width="24" height="24" viewBox="0 0 24 24" fill="none" xmlns="http://www.w3.org/2000/svg">
<path fill-rule="evenodd" clip-rule="evenodd" d="M19 3C17.3431 3 16 4.34315 16 6V18C16 19.6569 17.3431 21 19 21C20.6569 21 22 19.6569 22 18V6C22 4.34315 20.6569 3 19 3ZM18 6C18 5.44772 18.4477 5 19 5C19.5523 5 20 5.44772 20 6V18C20 18.5523 19.5523 19 19 19C18.4477 19 18 18.5523 18 18V6ZM9 12C9 10.3431 10.3431 9 12 9C13.6569 9 15 10.3431 15 12V18C15 19.6569 13.6569 21 12 21C10.3431 21 9 19.6569 9 18V12ZM12 11C11.4477 11 11 11.4477 11 12V18C11 18.5523 11.4477 19 12 19C12.5523 19 13 18.5523 13 18V12C13 11.4477 12.5523 11 12 11ZM2 18C2 16.3431 3.34315 15 5 15C6.65685 15 8 16.3431 8 18C8 19.6569 6.65685 21 5 21C3.34315 21 2 19.6569 2 18ZM5 17C4.44772 17 4 17.4477 4 18C4 18.5523 4.44772 19 5 19C5.55228 19 6 18.5523 6 18C6 17.4477 5.55228 17 5 17Z" fill="currentColor"/>
</svg>

<svg width="24" height="24" fill="none" xmlns="http://www.w3.org/2000/svg"><path fill-rule="evenodd" clip-rule="evenodd" d="M19 3a3 3 0 00-3 3v12a3 3 0 106 0V6a3 3 0 00-3-3zm-1 3a1 1 0 112 0v12a1 1 0 11-2 0V6zm-9 6a3 3 0 116 0v6a3 3 0 11-6 0v-6zm3-1a1 1 0 00-1 1v6a1 1 0 102 0v-6a1 1 0 00-1-1zM2 18a3 3 0 116 0 3 3 0 01-6 0zm3-1a1 1 0 100 2 1 1 0 000-2z" fill="currentColor"/></svg>
